;FLAVOR:Marlin
;TIME:2077
;Filament used: 0.404548m
;Layer height: 0.1
;MINX:25.7
;MINY:30.7
;MINZ:0.3
;MAXX:74.3
;MAXY:69.3
;MAXZ:15
;Generated with Cura_SteamEngine 5.0.0
M104 S200
M105
M109 S200
M82 ;absolute extrusion mode
G28 ;Home
G1 Z15.0 F6000 ;Move the platform down 15mm
;Prime the extruder
G92 E0
G1 F200 E3
G92 E0
G92 E0
G92 E0
G1 F1500 E-6.5
;LAYER_COUNT:148
;LAYER:0
M107
G0 F3600 X28.123 Y32.849 Z0.3
G0 X25.7 Y38.5
;TYPE:SKIRT
G1 F1500 E0
G1 F1800 X25.74 Y37.711 E0.01486
G1 X25.859 Y36.931 E0.0297
G1 X26.057 Y36.166 E0.04457
G1 X26.331 Y35.426 E0.05941
G1 X26.679 Y34.717 E0.07427
G1 X27.097 Y34.046 E0.08914
G1 X27.58 Y33.422 E0.10398
G1 X28.123 Y32.849 E0.11883
G1 X28.722 Y32.334 E0.13369
G1 X29.37 Y31.883 E0.14854
G1 X30.061 Y31.499 E0.16341
G1 X30.786 Y31.187 E0.17826
G1 X31.539 Y30.95 E0.19311
G1 X32.313 Y30.791 E0.20797
G1 X33.098 Y30.71 E0.22282
G1 X33.5 Y30.7 E0.23038
G1 X66.5 Y30.7 E0.85113
G1 X67.289 Y30.74 E0.86599
G1 X68.069 Y30.859 E0.88083
G1 X68.834 Y31.057 E0.89569
G1 X69.574 Y31.331 E0.91054
G1 X70.283 Y31.679 E0.92539
G1 X70.954 Y32.097 E0.94027
G1 X71.578 Y32.58 E0.95511
G1 X72.151 Y33.123 E0.96996
G1 X72.666 Y33.722 E0.98482
G1 X73.117 Y34.37 E0.99967
G1 X73.501 Y35.061 E1.01454
G1 X73.813 Y35.786 E1.02939
G1 X74.05 Y36.539 E1.04423
G1 X74.209 Y37.313 E1.0591
G1 X74.29 Y38.098 E1.07394
G1 X74.3 Y38.5 E1.08151
G1 X74.3 Y61.5 E1.51415
G1 X74.26 Y62.289 E1.52901
G1 X74.141 Y63.069 E1.54385
G1 X73.943 Y63.834 E1.55872
G1 X73.669 Y64.574 E1.57356
G1 X73.321 Y65.283 E1.58842
G1 X72.903 Y65.954 E1.60329
G1 X72.42 Y66.578 E1.61813
G1 X71.877 Y67.151 E1.63298
G1 X71.278 Y67.666 E1.64784
G1 X70.63 Y68.117 E1.66269
G1 X69.939 Y68.501 E1.67756
G1 X69.214 Y68.813 E1.69241
G1 X68.461 Y69.05 E1.70726
G1 X67.687 Y69.209 E1.72212
G1 X66.902 Y69.29 E1.73696
G1 X66.5 Y69.3 E1.74453
G1 X33.5 Y69.3 E2.36528
G1 X32.711 Y69.26 E2.38014
G1 X31.931 Y69.141 E2.39498
G1 X31.166 Y68.943 E2.40984
G1 X30.426 Y68.669 E2.42469
G1 X29.717 Y68.321 E2.43954
G1 X29.046 Y67.903 E2.45441
G1 X28.422 Y67.42 E2.46926
G1 X27.849 Y66.877 E2.48411
G1 X27.334 Y66.278 E2.49897
G1 X26.883 Y65.63 E2.51382
G1 X26.499 Y64.939 E2.52869
G1 X26.187 Y64.214 E2.54353
G1 X25.95 Y63.461 E2.55838
G1 X25.791 Y62.687 E2.57325
G1 X25.71 Y61.902 E2.58809
G1 X25.7 Y61.5 E2.59566
G1 X25.7 Y38.5 E3.0283
G0 F3600 X26.1 Y38.5
G1 F1800 X26.14 Y37.732 E3.04277
G1 X26.259 Y36.972 E3.05724
G1 X26.457 Y36.229 E3.0717
G1 X26.731 Y35.51 E3.08617
G1 X27.078 Y34.824 E3.10063
G1 X27.494 Y34.177 E3.1151
G1 X27.975 Y33.577 E3.12957
G1 X28.516 Y33.03 E3.14404
G1 X29.111 Y32.542 E3.15852
G1 X29.753 Y32.119 E3.17298
G1 X30.436 Y31.764 E3.18746
G1 X31.151 Y31.483 E3.20191
G1 X31.893 Y31.277 E3.21639
G1 X32.651 Y31.149 E3.23085
G1 X33.5 Y31.1 E3.24685
G1 X66.5 Y31.1 E3.8676
G1 X67.268 Y31.14 E3.88206
G1 X68.028 Y31.259 E3.89653
G1 X68.771 Y31.457 E3.911
G1 X69.49 Y31.731 E3.92547
G1 X70.176 Y32.078 E3.93993
G1 X70.823 Y32.494 E3.9544
G1 X71.423 Y32.975 E3.96887
G1 X71.97 Y33.516 E3.98334
G1 X72.458 Y34.111 E3.99781
G1 X72.881 Y34.753 E4.01228
G1 X73.236 Y35.436 E4.02676
G1 X73.517 Y36.151 E4.04121
G1 X73.723 Y36.893 E4.05569
G1 X73.851 Y37.651 E4.07015
G1 X73.9 Y38.5 E4.08615
G1 X73.9 Y61.5 E4.51879
G1 X73.86 Y62.268 E4.53326
G1 X73.741 Y63.028 E4.54773
G1 X73.543 Y63.771 E4.56219
G1 X73.269 Y64.49 E4.57667
G1 X72.922 Y65.176 E4.59113
G1 X72.506 Y65.823 E4.6056
G1 X72.025 Y66.423 E4.62006
G1 X71.484 Y66.97 E4.63453
G1 X70.889 Y67.458 E4.64901
G1 X70.247 Y67.881 E4.66347
G1 X69.564 Y68.236 E4.67795
G1 X68.849 Y68.517 E4.6924
G1 X68.107 Y68.723 E4.70689
G1 X67.349 Y68.851 E4.72135
G1 X66.5 Y68.9 E4.73734
G1 X33.5 Y68.9 E5.35809
G1 X32.732 Y68.86 E5.37256
G1 X31.972 Y68.741 E5.38703
G1 X31.229 Y68.543 E5.40149
G1 X30.51 Y68.269 E5.41597
G1 X29.824 Y67.922 E5.43043
G1 X29.177 Y67.506 E5.4449
G1 X28.577 Y67.025 E5.45936
G1 X28.03 Y66.484 E5.47383
G1 X27.542 Y65.889 E5.48831
G1 X27.119 Y65.247 E5.50277
G1 X26.764 Y64.564 E5.51725
G1 X26.483 Y63.849 E5.5317
G1 X26.277 Y63.107 E5.54619
G1 X26.149 Y62.349 E5.56065
G1 X26.1 Y61.5 E5.57664
G1 X26.1 Y38.5 E6.00929
G0 F3600 X26.5 Y38.5
G1 F1800 X26.54 Y37.753 E6.02336
G1 X26.659 Y37.015 E6.03742
G1 X26.857 Y36.293 E6.0515
G1 X27.13 Y35.597 E6.06556
G1 X27.477 Y34.934 E6.07964
G1 X27.892 Y34.311 E6.09372
G1 X28.371 Y33.737 E6.10778
G1 X28.908 Y33.216 E6.12186
G1 X29.498 Y32.757 E6.13592
G1 X30.134 Y32.362 E6.15
G1 X30.808 Y32.038 E6.16407
G1 X31.513 Y31.788 E6.17814
G1 X32.241 Y31.614 E6.19222
G1 X32.983 Y31.519 E6.20629
G1 X33.5 Y31.5 E6.21602
G1 X66.5 Y31.5 E6.83677
G1 X67.247 Y31.54 E6.85084
G1 X67.985 Y31.659 E6.8649
G1 X68.707 Y31.857 E6.87899
G1 X69.403 Y32.13 E6.89305
G1 X70.066 Y32.477 E6.90713
G1 X70.689 Y32.892 E6.92121
G1 X71.263 Y33.371 E6.93527
G1 X71.784 Y33.908 E6.94934
G1 X72.243 Y34.498 E6.96341
G1 X72.638 Y35.134 E6.97749
G1 X72.962 Y35.808 E6.99156
G1 X73.212 Y36.513 E7.00563
G1 X73.386 Y37.241 E7.01971
G1 X73.481 Y37.983 E7.03378
G1 X73.5 Y38.5 E7.04351
G1 X73.5 Y61.5 E7.47615
G1 X73.46 Y62.247 E7.49022
G1 X73.341 Y62.985 E7.50429
G1 X73.143 Y63.707 E7.51837
G1 X72.87 Y64.403 E7.53243
G1 X72.523 Y65.066 E7.54651
G1 X72.108 Y65.689 E7.56059
G1 X71.629 Y66.263 E7.57465
G1 X71.092 Y66.784 E7.58873
G1 X70.502 Y67.243 E7.60279
G1 X69.866 Y67.638 E7.61687
G1 X69.192 Y67.962 E7.63094
G1 X68.487 Y68.212 E7.64501
G1 X67.759 Y68.386 E7.65909
G1 X67.017 Y68.481 E7.67316
G1 X66.5 Y68.5 E7.68289
G1 X33.5 Y68.5 E8.30364
G1 X32.753 Y68.46 E8.31771
G1 X32.015 Y68.341 E8.33177
G1 X31.293 Y68.143 E8.34585
G1 X30.597 Y67.87 E8.35992
G1 X29.934 Y67.523 E8.37399
G1 X29.311 Y67.108 E8.38808
G1 X28.737 Y66.629 E8.40214
G1 X28.216 Y66.092 E8.41621
G1 X27.757 Y65.502 E8.43027
G1 X27.362 Y64.866 E8.44436
G1 X27.038 Y64.192 E8.45842
G1 X26.788 Y63.487 E8.47249
G1 X26.614 Y62.759 E8.48657
G1 X26.519 Y62.017 E8.50065
G1 X26.5 Y61.5 E8.51038
G1 X26.5 Y38.5 E8.94302
G0 F3600 X26.9 Y38.5
G1 F1800 X26.94 Y37.775 E8.95668
G1 X27.059 Y37.058 E8.97035
G1 X27.257 Y36.359 E8.98402
G1 X27.53 Y35.686 E8.99768
G1 X27.875 Y35.047 E9.01134
G1 X28.289 Y34.45 E9.025
G1 X28.765 Y33.902 E9.03866
G1 X29.299 Y33.409 E9.05233
G1 X29.884 Y32.979 E9.06599
G1 X30.513 Y32.615 E9.07966
G1 X31.178 Y32.322 E9.09332
G1 X31.871 Y32.104 E9.10699
G1 X32.583 Y31.964 E9.12064
G1 X33.5 Y31.9 E9.13793
G1 X66.5 Y31.9 E9.75868
G1 X67.225 Y31.94 E9.77234
G1 X67.942 Y32.059 E9.78601
G1 X68.641 Y32.257 E9.79968
G1 X69.314 Y32.53 E9.81334
G1 X69.953 Y32.875 E9.827
G1 X70.55 Y33.289 E9.84066
G1 X71.098 Y33.765 E9.85432
G1 X71.591 Y34.299 E9.86799
G1 X72.021 Y34.884 E9.88164
G1 X72.385 Y35.513 E9.89531
G1 X72.678 Y36.178 E9.90898
G1 X72.896 Y36.871 E9.92265
G1 X73.036 Y37.583 E9.9363
G1 X73.1 Y38.5 E9.95359
G1 X73.1 Y61.5 E10.38623
G1 X73.06 Y62.225 E10.39989
G1 X72.941 Y62.942 E10.41356
G1 X72.743 Y63.641 E10.42723
G1 X72.47 Y64.314 E10.44089
G1 X72.125 Y64.953 E10.45455
G1 X71.711 Y65.55 E10.46822
G1 X71.235 Y66.098 E10.48187
G1 X70.701 Y66.591 E10.49554
G1 X70.116 Y67.021 E10.5092
G1 X69.487 Y67.385 E10.52287
G1 X68.822 Y67.678 E10.53654
G1 X68.129 Y67.896 E10.5502
G1 X67.417 Y68.036 E10.56385
G1 X66.5 Y68.1 E10.58114
G1 X33.5 Y68.1 E11.20189
G1 X32.775 Y68.06 E11.21555
G1 X32.058 Y67.941 E11.22922
G1 X31.359 Y67.743 E11.24289
G1 X30.686 Y67.47 E11.25655
G1 X30.047 Y67.125 E11.27021
G1 X29.45 Y66.711 E11.28388
G1 X28.902 Y66.235 E11.29753
G1 X28.409 Y65.701 E11.3112
G1 X27.979 Y65.116 E11.32486
G1 X27.615 Y64.487 E11.33853
G1 X27.322 Y63.822 E11.3522
G1 X27.104 Y63.129 E11.36586
G1 X26.964 Y62.417 E11.37951
G1 X26.9 Y61.5 E11.3968
G1 X26.9 Y38.5 E11.82945
G0 F3600 X27.3 Y38.5
G1 F1800 X27.34 Y37.797 E11.84269
G1 X27.459 Y37.103 E11.85594
G1 X27.657 Y36.428 E11.86917
G1 X27.929 Y35.779 E11.88241
G1 X28.274 Y35.165 E11.89565
G1 X28.685 Y34.594 E11.90889
G1 X29.159 Y34.073 E11.92214
G1 X29.689 Y33.609 E11.93539
G1 X30.268 Y33.209 E11.94863
G1 X30.889 Y32.877 E11.96187
G1 X31.543 Y32.617 E11.97511
G1 X32.223 Y32.433 E11.98836
G1 X32.919 Y32.327 E12.0016
G1 X33.5 Y32.3 E12.01255
G1 X66.5 Y32.3 E12.63329
G1 X67.203 Y32.34 E12.64654
G1 X67.897 Y32.459 E12.65978
G1 X68.572 Y32.657 E12.67302
G1 X69.221 Y32.929 E12.68625
G1 X69.835 Y33.274 E12.6995
G1 X70.406 Y33.685 E12.71273
G1 X70.927 Y34.159 E12.72598
G1 X71.391 Y34.689 E12.73923
G1 X71.791 Y35.268 E12.75247
G1 X72.123 Y35.889 E12.76572
G1 X72.383 Y36.543 E12.77896
G1 X72.567 Y37.223 E12.79221
G1 X72.673 Y37.919 E12.80545
G1 X72.7 Y38.5 E12.81639
G1 X72.7 Y61.5 E13.24903
G1 X72.66 Y62.203 E13.26228
G1 X72.541 Y62.897 E13.27552
G1 X72.343 Y63.572 E13.28876
G1 X72.071 Y64.221 E13.30199
G1 X71.726 Y64.835 E13.31524
G1 X71.315 Y65.406 E13.32848
G1 X70.841 Y65.927 E13.34172
G1 X70.311 Y66.391 E13.35498
G1 X69.732 Y66.791 E13.36821
G1 X69.111 Y67.123 E13.38146
G1 X68.457 Y67.383 E13.3947
G1 X67.777 Y67.567 E13.40795
G1 X67.081 Y67.673 E13.42119
G1 X66.5 Y67.7 E13.43213
G1 X33.5 Y67.7 E14.05288
G1 X32.797 Y67.66 E14.06613
G1 X32.103 Y67.541 E14.07937
G1 X31.428 Y67.343 E14.0926
G1 X30.779 Y67.071 E14.10584
G1 X30.165 Y66.726 E14.11909
G1 X29.594 Y66.315 E14.13232
G1 X29.073 Y65.841 E14.14557
G1 X28.609 Y65.311 E14.15882
G1 X28.209 Y64.732 E14.17206
G1 X27.877 Y64.111 E14.18531
G1 X27.617 Y63.457 E14.19854
G1 X27.433 Y62.777 E14.2118
G1 X27.327 Y62.081 E14.22504
G1 X27.3 Y61.5 E14.23598
G1 X27.3 Y38.5 E14.66862
G0 F3600 X27.7 Y38.5
G1 F1800 X27.74 Y37.82 E14.68144
G1 X27.859 Y37.15 E14.69424
G1 X28.056 Y36.498 E14.70705
G1 X28.328 Y35.874 E14.71985
G1 X28.672 Y35.286 E14.73267
G1 X29.082 Y34.742 E14.74548
G1 X29.553 Y34.251 E14.75828
G1 X30.078 Y33.817 E14.77109
G1 X30.65 Y33.448 E14.7839
G1 X31.262 Y33.149 E14.79671
G1 X31.904 Y32.924 E14.8095
G1 X32.569 Y32.775 E14.82232
G1 X33.5 Y32.7 E14.83989
G1 X66.5 Y32.7 E15.46064
G1 X67.18 Y32.74 E15.47346
G1 X67.85 Y32.859 E15.48626
G1 X68.502 Y33.056 E15.49907
G1 X69.126 Y33.328 E15.51187
G1 X69.714 Y33.672 E15.52469
G1 X70.258 Y34.082 E15.5375
G1 X70.749 Y34.553 E15.5503
G1 X71.183 Y35.078 E15.56311
G1 X71.552 Y35.65 E15.57592
G1 X71.851 Y36.262 E15.58873
G1 X72.076 Y36.904 E15.60152
G1 X72.225 Y37.569 E15.61434
G1 X72.3 Y38.5 E15.63191
G1 X72.3 Y61.5 E16.06456
G1 X72.26 Y62.18 E16.07737
G1 X72.141 Y62.85 E16.09017
G1 X71.944 Y63.502 E16.10298
G1 X71.672 Y64.126 E16.11579
G1 X71.328 Y64.714 E16.1286
G1 X70.918 Y65.258 E16.14141
G1 X70.447 Y65.749 E16.15421
G1 X69.922 Y66.183 E16.16703
G1 X69.35 Y66.552 E16.17983
G1 X68.738 Y66.851 E16.19264
G1 X68.096 Y67.076 E16.20544
G1 X67.431 Y67.225 E16.21826
G1 X66.5 Y67.3 E16.23583
G1 X33.5 Y67.3 E16.85658
G1 X32.82 Y67.26 E16.86939
G1 X32.15 Y67.141 E16.88219
G1 X31.498 Y66.944 E16.895
G1 X30.874 Y66.672 E16.90781
G1 X30.286 Y66.328 E16.92062
G1 X29.742 Y65.918 E16.93343
G1 X29.251 Y65.447 E16.94623
G1 X28.817 Y64.922 E16.95905
G1 X28.448 Y64.35 E16.97185
G1 X28.149 Y63.738 E16.98466
G1 X27.924 Y63.096 E16.99746
G1 X27.775 Y62.431 E17.01028
G1 X27.7 Y61.5 E17.02785
G1 X27.7 Y38.5 E17.46049
G0 F3600 X28.1 Y38.5
G1 F1800 X28.14 Y37.844 E17.47285
G1 X28.259 Y37.198 E17.48521
G1 X28.456 Y36.571 E17.49757
G1 X28.728 Y35.973 E17.50993
G1 X29.07 Y35.412 E17.52229
G1 X29.478 Y34.897 E17.53465
G1 X29.945 Y34.435 E17.547
G1 X30.465 Y34.034 E17.55936
G1 X31.029 Y33.698 E17.57171
G1 X31.631 Y33.434 E17.58407
G1 X32.26 Y33.244 E17.59643
G1 X32.907 Y33.133 E17.60878
G1 X33.5 Y33.1 E17.61995
G1 X66.5 Y33.1 E18.2407
G1 X67.156 Y33.14 E18.25306
G1 X67.802 Y33.259 E18.26542
G1 X68.429 Y33.456 E18.27778
G1 X69.027 Y33.728 E18.29014
G1 X69.588 Y34.07 E18.3025
G1 X70.103 Y34.478 E18.31486
G1 X70.565 Y34.945 E18.32721
G1 X70.966 Y35.465 E18.33957
G1 X71.302 Y36.029 E18.35191
G1 X71.566 Y36.631 E18.36428
G1 X71.756 Y37.26 E18.37664
G1 X71.867 Y37.907 E18.38899
G1 X71.9 Y38.5 E18.40016
G1 X71.9 Y61.5 E18.8328
G1 X71.86 Y62.156 E18.84517
G1 X71.741 Y62.802 E18.85752
G1 X71.544 Y63.429 E18.86988
G1 X71.272 Y64.027 E18.88224
G1 X70.93 Y64.588 E18.8946
G1 X70.522 Y65.103 E18.90696
G1 X70.055 Y65.565 E18.91932
G1 X69.535 Y65.966 E18.93167
G1 X68.971 Y66.302 E18.94402
G1 X68.369 Y66.566 E18.95638
G1 X67.74 Y66.756 E18.96874
G1 X67.093 Y66.867 E18.98109
G1 X66.5 Y66.9 E18.99226
G1 X33.5 Y66.9 E19.61301
G1 X32.844 Y66.86 E19.62537
G1 X32.198 Y66.741 E19.63773
G1 X31.571 Y66.544 E19.65009
G1 X30.973 Y66.272 E19.66245
G1 X30.412 Y65.93 E19.67481
G1 X29.897 Y65.522 E19.68717
G1 X29.435 Y65.055 E19.69953
G1 X29.034 Y64.535 E19.71188
G1 X28.698 Y63.971 E19.72423
G1 X28.434 Y63.369 E19.73659
G1 X28.244 Y62.74 E19.74895
G1 X28.133 Y62.093 E19.7613
G1 X28.1 Y61.5 E19.77247
G1 X28.1 Y38.5 E20.20511
G0 F3600 X28.5 Y38.5
G1 F1800 X28.54 Y37.869 E20.21701
G1 X28.659 Y37.248 E20.2289
G1 X28.856 Y36.648 E20.24078
G1 X29.127 Y36.076 E20.25269
G1 X29.467 Y35.544 E20.26456
G1 X29.873 Y35.059 E20.27646
G1 X30.336 Y34.629 E20.28835
G1 X30.85 Y34.26 E20.30025
G1 X31.406 Y33.96 E20.31213
G1 X31.995 Y33.732 E20.32401
G1 X32.609 Y33.58 E20.33591
G1 X33.5 Y33.5 E20.35274
G1 X66.5 Y33.5 E20.97349
G1 X67.131 Y33.54 E20.98538
G1 X67.752 Y33.659 E20.99727
G1 X68.352 Y33.856 E21.00915
G1 X68.924 Y34.127 E21.02106
G1 X69.456 Y34.467 E21.03294
G1 X69.941 Y34.873 E21.04483
G1 X70.371 Y35.336 E21.05672
G1 X70.74 Y35.85 E21.06862
G1 X71.04 Y36.406 E21.08051
G1 X71.268 Y36.995 E21.09239
G1 X71.42 Y37.609 E21.10429
G1 X71.5 Y38.5 E21.12111
G1 X71.5 Y61.5 E21.55376
G1 X71.46 Y62.131 E21.56565
G1 X71.341 Y62.752 E21.57754
G1 X71.144 Y63.352 E21.58942
G1 X70.873 Y63.924 E21.60133
G1 X70.533 Y64.456 E21.6132
G1 X70.127 Y64.941 E21.6251
G1 X69.664 Y65.371 E21.63699
G1 X69.15 Y65.74 E21.64889
G1 X68.594 Y66.04 E21.66077
G1 X68.005 Y66.268 E21.67265
G1 X67.391 Y66.42 E21.68455
G1 X66.5 Y66.5 E21.70138
G1 X33.5 Y66.5 E22.32213
G1 X32.869 Y66.46 E22.33402
G1 X32.248 Y66.341 E22.34592
G1 X31.648 Y66.144 E22.3578
G1 X31.076 Y65.873 E22.3697
G1 X30.544 Y65.533 E22.38158
G1 X30.059 Y65.127 E22.39348
G1 X29.629 Y64.664 E22.40536
G1 X29.26 Y64.15 E22.41726
G1 X28.96 Y63.594 E22.42915
G1 X28.732 Y63.005 E22.44103
G1 X28.58 Y62.391 E22.45293
G1 X28.5 Y61.5 E22.46975
G1 X28.5 Y38.5 E22.9024
G0 F3600 X28.9 Y38.5
G1 F1800 X28.94 Y37.895 E22.9138
G1 X29.059 Y37.301 E22.9252
G1 X29.255 Y36.727 E22.93661
G1 X29.526 Y36.184 E22.94802
G1 X29.865 Y35.681 E22.95943
G1 X30.267 Y35.228 E22.97083
G1 X30.725 Y34.831 E22.98223
G1 X31.232 Y34.498 E22.99364
G1 X31.778 Y34.234 E23.00504
G1 X32.354 Y34.045 E23.01645
G1 X32.95 Y33.933 E23.02786
G1 X33.5 Y33.9 E23.03822
G1 X66.5 Y33.9 E23.65897
G1 X67.105 Y33.94 E23.67037
G1 X67.699 Y34.059 E23.68177
G1 X68.273 Y34.255 E23.69318
G1 X68.816 Y34.526 E23.70459
G1 X69.319 Y34.865 E23.716
G1 X69.772 Y35.267 E23.7274
G1 X70.169 Y35.725 E23.7388
G1 X70.502 Y36.232 E23.75021
G1 X70.766 Y36.778 E23.76162
G1 X70.955 Y37.354 E23.77302
G1 X71.067 Y37.95 E23.78443
G1 X71.1 Y38.5 E23.79479
G1 X71.1 Y61.5 E24.22743
G1 X71.06 Y62.105 E24.23884
G1 X70.941 Y62.699 E24.25023
G1 X70.745 Y63.273 E24.26164
G1 X70.474 Y63.816 E24.27306
G1 X70.135 Y64.319 E24.28447
G1 X69.733 Y64.772 E24.29586
G1 X69.275 Y65.169 E24.30726
G1 X68.768 Y65.502 E24.31867
G1 X68.222 Y65.766 E24.33008
G1 X67.646 Y65.955 E24.34148
G1 X67.05 Y66.067 E24.35289
G1 X66.5 Y66.1 E24.36326
G1 X33.5 Y66.1 E24.984
G1 X32.895 Y66.06 E24.99541
G1 X32.301 Y65.941 E25.00681
G1 X31.727 Y65.745 E25.01822
G1 X31.184 Y65.474 E25.02963
G1 X30.681 Y65.135 E25.04104
G1 X30.228 Y64.733 E25.05243
G1 X29.831 Y64.275 E25.06383
G1 X29.498 Y63.768 E25.07524
G1 X29.234 Y63.222 E25.08665
G1 X29.045 Y62.646 E25.09806
G1 X28.933 Y62.05 E25.10946
G1 X28.9 Y61.5 E25.11983
G1 X28.9 Y38.5 E25.55247
G0 F3600 X29.3 Y38.5
G1 F1800 X29.34 Y37.922 E25.56337
G1 X29.459 Y37.355 E25.57427
G1 X29.655 Y36.81 E25.58516
G1 X29.924 Y36.297 E25.59606
G1 X30.261 Y35.826 E25.60695
G1 X30.66 Y35.406 E25.61785
G1 X31.113 Y35.044 E25.62876
G1 X31.611 Y34.749 E25.63964
G1 X32.145 Y34.524 E25.65054
G1 X32.705 Y34.376 E25.66144
G1 X33.5 Y34.3 E25.67646
G1 X66.5 Y34.3 E26.29721
G1 X67.078 Y34.34 E26.30811
G1 X67.645 Y34.459 E26.31901
G1 X68.19 Y34.655 E26.3299
G1 X68.703 Y34.924 E26.3408
G1 X69.174 Y35.261 E26.35169
G1 X69.594 Y35.66 E26.36259
G1 X69.956 Y36.113 E26.3735
